icons/edu-calculator-1-filled.svg

<svg fill="none" viewBox="0 0 24 24"><path stroke="currentColor" stroke-linecap="round" stroke-linejoin="round" stroke-width="2" d="M2.4 12.3h9.3m.6 9.3v-19.2m-5 6.7v-3.3m-1.7 1.7h3.4m-3.4 10h3.4m6.4-3.4h3.3m-3.3-3.1h3.3m-13.7 10.6h14a2.6 2.6 0 0 0 2.6-2.6v-14a2.6 2.6 0 0 0-2.6-2.6h-14a2.6 2.6 0 0 0-2.6 2.6v14a2.6 2.6 0 0 0 2.6 2.6Z"/></svg>

<svg fill="none" viewBox="0 0 24 24"><path stroke="currentColor" stroke-linecap="round" stroke-linejoin="round" stroke-width="2" d="M2.4 12.3h9.3m.6 9.3V2.4m-5 6.7V5.8M5.6 7.5H9m-3.4 10H9m6.4-3.4h3.3M15.4 11h3.3M5 21.6h14a2.6 2.6 0 0 0 2.6-2.6V5A2.6 2.6 0 0 0 19 2.4H5A2.6 2.6 0 0 0 2.4 5v14A2.6 2.6 0 0 0 5 21.6"/></svg>
